X: 27564
T: Money In Both Pockets
R: jig
M: 6/8
K: Dmajor
|:A||d2A AFA|ABA AGF|d2A FEF|e2f gfe|
d2A AFA|ABA AGF|EFE EFA|B3 A2:|
|:A||dfa afd|cde ecA|dfa afd|fga a2g|
afa geg|fed cBA|dcB AFA|B3 A2:|

